X:1
T:Title
%%score { ( 1 3 ) | 2 }
L:1/8
Q:1/4=92
M:4/4
K:G
V:1 treble nm="Grand Piano"
V:3 treble 
V:2 bass 
V:1
 [B,D][B,D] [G,DG]>A B2 d2 | z4 B4 | ee B>d d2 c2 | [DGB][EGc][DB][CDA] [B,DG]4 |] %4
w: Thoro~Harris * * * * *||||
V:2
 G,,G,, B,,>[D,F,D] [G,D]2 [G,B,D]2 | G,,G,, B,,>[D,F,D] [G,D]4 | %2
 [E,A,E][E,G,E] [G,B,E]>[E,B,E] [A,B,E]2 [A,E]2 | D,D,D,D, G,,4 |] %4
V:3
 x8 | [B,D][B,D] [G,DG]>A z2 =F,2 | x8 | x8 |] %4

